src/assets/duotone/Document1.svg

<?xml version="1.0" encoding="UTF-8"?>
<svg width="24" height="24" viewBox="0 0 24 24" xmlns="http://www.w3.org/2000/svg">
 <path d="M16.19 2H7.81C4.17 2 2 4.17 2 7.81V16.18C2 19.83 4.17 22 7.81 22H16.18C19.82 22 21.99 19.83 21.99 16.19V7.81C22 4.17 19.83 2 16.19 2Z" opacity=".4"/>
 <path d="m15.75 9.75h-7.5c-0.41 0-0.75-0.34-0.75-0.75s0.34-0.75 0.75-0.75h7.5c0.41 0 0.75 0.34 0.75 0.75s-0.34 0.75-0.75 0.75z"/>
 <path d="m15.75 15.75h-7.5c-0.41 0-0.75-0.34-0.75-0.75s0.34-0.75 0.75-0.75h7.5c0.41 0 0.75 0.34 0.75 0.75s-0.34 0.75-0.75 0.75z"/>
</svg>

<svg width="24" height="24" viewBox="0 0 24 24"  xmlns="http://www.w3.org/2000/svg">
<path opacity="0.4" d="M16.19 2H7.81C4.17 2 2 4.17 2 7.81V16.18C2 19.83 4.17 22 7.81 22H16.18C19.82 22 21.99 19.83 21.99 16.19V7.81C22 4.17 19.83 2 16.19 2Z" />
<path d="M15.75 9.75H8.25C7.84 9.75 7.5 9.41 7.5 9C7.5 8.59 7.84 8.25 8.25 8.25H15.75C16.16 8.25 16.5 8.59 16.5 9C16.5 9.41 16.16 9.75 15.75 9.75Z" />
<path d="M15.75 15.75H8.25C7.84 15.75 7.5 15.41 7.5 15C7.5 14.59 7.84 14.25 8.25 14.25H15.75C16.16 14.25 16.5 14.59 16.5 15C16.5 15.41 16.16 15.75 15.75 15.75Z" />
</svg>
